src/16/mimetypes/application-json.svg

<svg xmlns="http://www.w3.org/2000/svg" width="16" height="16"><path d="M6 2a2.98 2.98 0 0 0-2 2.814v.381c0 .74-.404 1.378-1 1.723v2.166c.596.345 1 .981 1 1.721v.381A2.98 2.98 0 0 0 6 14v-1.092c-.596-.345-1-.983-1-1.723v-.381c0-1.3-.826-2.388-1.98-2.805A2.978 2.978 0 0 0 5 5.194v-.381c0-.74.404-1.378 1-1.723zm4 0v1.092c.596.345 1 .983 1 1.723v.381a2.98 2.98 0 0 0 1.98 2.805A2.977 2.977 0 0 0 11 10.806v.381c0 .74-.404 1.378-1 1.723v1.092a2.98 2.98 0 0 0 2-2.814v-.381c0-.74.404-1.376 1-1.721V6.92c-.596-.345-1-.983-1-1.723v-.381a2.98 2.98 0 0 0-2-2.814" color="#000" fill="#cf74e0"/></svg>

<?xml version="1.0" encoding="UTF-8" standalone="no"?>
<svg
   xmlns:dc="http://purl.org/dc/elements/1.1/"
   xmlns:cc="http://creativecommons.org/ns#"
   xmlns:rdf="http://www.w3.org/1999/02/22-rdf-syntax-ns#"
   xmlns:svg="http://www.w3.org/2000/svg"
   xmlns="http://www.w3.org/2000/svg"
   xmlns:sodipodi="http://sodipodi.sourceforge.net/DTD/sodipodi-0.dtd"
   xmlns:inkscape="http://www.inkscape.org/namespaces/inkscape"
   width="16"
   height="16"
   viewBox="0 0 16 16"
   id="svg2"
   version="1.1"
   inkscape:version="0.91 r13725"
   sodipodi:docname="application-json.svg">
  <metadata
     id="metadata10">
    <rdf:RDF>
      <cc:Work
         rdf:about="">
        <dc:format>image/svg+xml</dc:format>
        <dc:type
           rdf:resource="http://purl.org/dc/dcmitype/StillImage" />
        <dc:title></dc:title>
      </cc:Work>
    </rdf:RDF>
  </metadata>
  <defs
     id="defs8" />
  <sodipodi:namedview
     pagecolor="#ffffff"
     bordercolor="#666666"
     borderopacity="1"
     objecttolerance="10"
     gridtolerance="10"
     guidetolerance="10"
     inkscape:pageopacity="0"
     inkscape:pageshadow="2"
     inkscape:window-width="2560"
     inkscape:window-height="1382"
     id="namedview6"
     showgrid="false"
     inkscape:zoom="14.75"
     inkscape:cx="8"
     inkscape:cy="8"
     inkscape:window-x="0"
     inkscape:window-y="36"
     inkscape:window-maximized="1"
     inkscape:current-layer="svg2" />
  <path
     inkscape:connector-curvature="0"
     style="color:#000000;color-interpolation:sRGB;color-interpolation-filters:linearRGB;fill:#cf74e0;color-rendering:auto;image-rendering:auto;shape-rendering:auto;text-rendering:auto;fill-opacity:1"
     d="M 6,2 C 4.835,2.411 4,3.507 4,4.814 L 4,5.195 C 4,5.935 3.596,6.573 3,6.918 l 0,2.166 c 0.596,0.345 1,0.981 1,1.721 l 0,0.381 C 4,12.493 4.835,13.589 6,14 L 6,12.908 C 5.404,12.563 5,11.925 5,11.185 L 5,10.804 C 5,9.504 4.174,8.416 3.02,7.999 4.174,7.582 5,6.494 5,5.194 L 5,4.813 C 5,4.073 5.404,3.435 6,3.09 Z m 4,0 0,1.092 c 0.596,0.345 1,0.983 1,1.723 l 0,0.381 c 0,1.299 0.827,2.388 1.98,2.805 C 11.826,8.417 11,9.506 11,10.806 l 0,0.381 c 0,0.74 -0.404,1.378 -1,1.723 l 0,1.092 c 1.165,-0.411 2,-1.507 2,-2.814 l 0,-0.381 c 0,-0.74 0.404,-1.376 1,-1.721 L 13,6.92 C 12.404,6.575 12,5.937 12,5.197 L 12,4.816 C 12,3.509 11.165,2.413 10,2.002"
     id="path4-3" />
</svg>
